X:1
T:Title
%%score { ( 1 3 ) | 2 }
L:1/8
Q:1/4=88
M:6/8
K:Bb
V:1 treble nm="Grand Piano"
V:3 treble 
V:2 bass 
V:1
 [DF]D[CE] [DF][EG][EA] | [DB][FA][EG] [DF]3 | FEE EFG | [EG][DF][DF] [DF]3 | %4
w: D.~B.~Towner * * * * *||||
 [DF]D[CE] [DF][EG][EA] | [DB][FA][EG] [DF]3 | [Ec][Fd][Ge] dBc | [DB]6 | F3 z3 | G3 z3 | AAA ABc | %11
w: |||||||
 [Fd][DB][EG] [DF]3 | F3 z3 | G3 z3 | c[Fd][Ge] dBc | [DB]6 |] %16
w: |||||
V:2
 [B,,B,][B,,B,][B,,B,] [B,,B,][E,B,][C,F,] | [B,,F,][B,,B,][B,,B,] [B,,B,]3 | %2
 [F,B,D][F,A,C][F,A,C] [F,C][F,D][F,A,E] | [B,,B,][B,,B,][B,,B,] [B,,B,]3 | %4
 [B,,B,][B,,B,][B,,B,] [B,,B,][E,B,][C,F,] | [B,,F,][B,,B,][B,,B,] [B,,B,]3 | %6
 [E,G,][D,G,][C,G,] [F,B,F][F,D][F,A,E] | [B,,F,B,]6 | [B,,B,][B,,B,][B,,B,] [B,,B,]3 | %9
 [E,B,E][E,B,][E,B,] [E,G,E]3 | [F,CE][F,CE][F,CE] [F,CE][F,B,D][F,A,F] | %11
 [B,,B,][B,,F,][B,,B,] [B,,B,]3 | [B,,B,][B,,B,][B,,B,] [B,,B,]3 | [E,B,E][E,B,][E,B,] [E,G,E]3 | %14
 [E,G,E][D,G,][C,G,] [F,B,F][F,D][F,A,E] | [B,,F,B,]6 |] %16
V:3
 x6 | x6 | x6 | x6 | x6 | x6 | x6 | x6 | DDD [DB]3 | z EE c3 | x6 | x6 | DDD [DB]3 | z EE c3 | x6 | %15
 x6 |] %16

